!!!OTL: 67a. Unter der Linde.
!!!ARE: Europa, Mitteleuropa, Deutschland
!!!SCT: E0067
!!!TXL: @@DE
!!!YEM: Copyright 1995, estate of Helmut Schaffrath.
**kern	**text
*ICvox	*
*M3/4	*
*met(3)	*
*k[]	*
*d:	*
=1	=1
!LO:TX:a:t=Aen ghender linden daer ſtaet een dal.	!
!LO:TX:a:t=Souterliedekens 1540. Nr. 38.	!
{4d	Es
4f	ſteht
4g	ein
=2	=2
2a	Lind
4b-/	in
=3	=3
2a	je-
4g	-nem
=4	=4
2a	Thal,
4r}	.
=5	=5
{4a	iſt
4a	o-
4a	-ben
=6	=6
2cc	breit
4b-	und
=7	=7
(4a	un-
4g)	.
4g	-ten
=8	=8
2f}	ſchmal,
{4a	da-
=9	=9
(4g	-rauf
4a)	.
4b-/	da
=10	=10
2a	ſitʒt
4d	Frau
=11	=11
(4f	Nach-
4e)	.
4d	-ti-
=12	=12
2c	-gall
4r}	.
=13	=13
{4g	und
4g	an-
4g	-dre
=14	=14
8fL	Vög-
8e	.
8f	.
8gJ	.
4a	-lein
=15	=15
(4g	in
4f)	.
4e	dem
=16	=16
2.d;}	Wald.
==	==
!!!AGN: erzaehlendes Volks - Lied, Sage, Liebe, Ballade ?
!!!ONB: ESAC (Essen Associative Code) Database: ERK1
!!!AMT: simple triple
!!!AIN: vox
!!!EED: Helmut Schaffrath
!!!EEV: 1.0
!!!GTL: Liebesgeschichten mit gluecklichem Ausgange
!!!URL-scan: https://rosdok.uni-rostock.de/mcrviewer/recordIdentifier/rosdok_ppn745146120/iview2/phys_0300.iview2?x=-495.6391625615772&y=503.8509666745085&scale=0.46294184720638515&rotation=0&layout=singlePageLayout&logicalDiv=log_0009
!!!ENC: Anna Maria Matuszewska
!!!EEV: 2024/11/26
*-	*-
